src/assets/img/html.svg

<?xml version="1.0" encoding="iso-8859-1"?>
<!-- Generator: Adobe Illustrator 18.0.0, SVG Export Plug-In . SVG Version: 6.00 Build 0)  -->
<!DOCTYPE svg PUBLIC "-//W3C//DTD SVG 1.1//EN" "http://www.w3.org/Graphics/SVG/1.1/DTD/svg11.dtd">
<svg version="1.1" id="Capa_1" xmlns="http://www.w3.org/2000/svg" xmlns:xlink="http://www.w3.org/1999/xlink" x="0px" y="0px"
	 viewBox="0 0 58 58" style="enable-background:new 0 0 58 58;" xml:space="preserve">
<g>
	<path d="M51.5,39V13.978c0-0.766-0.092-1.333-0.55-1.792L39.313,0.55C38.964,0.201,38.48,0,37.985,0H8.963
		C7.777,0,6.5,0.916,6.5,2.926V39H51.5z M37.5,3.391c0-0.458,0.553-0.687,0.877-0.363l10.095,10.095
		C48.796,13.447,48.567,14,48.109,14H37.5V3.391z M34.793,18.707c-0.391-0.391-0.391-1.023,0-1.414s1.023-0.391,1.414,0l6,6
		c0.391,0.391,0.391,1.023,0,1.414l-6,6C36.012,30.902,35.756,31,35.5,31s-0.512-0.098-0.707-0.293
		c-0.391-0.391-0.391-1.023,0-1.414L40.086,24L34.793,18.707z M16.793,23.293l6-6c0.391-0.391,1.023-0.391,1.414,0
		s0.391,1.023,0,1.414L18.914,24l5.293,5.293c0.391,0.391,0.391,1.023,0,1.414C24.012,30.902,23.756,31,23.5,31
		s-0.512-0.098-0.707-0.293l-6-6C16.402,24.316,16.402,23.684,16.793,23.293z"/>
	<path d="M6.5,41v15c0,1.009,1.22,2,2.463,2h40.074c1.243,0,2.463-0.991,2.463-2V41H6.5z M18.455,54h-1.641v-4.539h-4.361V54h-1.668
		V43.924h1.668v4.416h4.361v-4.416h1.641V54z M28.107,45.045H25.1V54h-1.654v-8.955h-3.008v-1.121h7.67V45.045z M39.373,54h-1.668
		v-6.932l-2.256,5.605H34l-2.27-5.605V54h-1.668V43.924h1.668l2.994,6.891l2.98-6.891h1.668V54z M48.205,54h-6.303V43.924h1.668
		v8.832h4.635V54z"/>
</g>
<g>
</g>
<g>
</g>
<g>
</g>
<g>
</g>
<g>
</g>
<g>
</g>
<g>
</g>
<g>
</g>
<g>
</g>
<g>
</g>
<g>
</g>
<g>
</g>
<g>
</g>
<g>
</g>
<g>
</g>
</svg>

<svg width="58" height="58" viewBox="0 0 58 58" fill="none" xmlns="http://www.w3.org/2000/svg">
<path d="M51.5 39V13.978C51.5 13.212 51.408 12.645 50.95 12.186L39.313 0.55C38.964 0.201 38.48 0 37.985 0H8.963C7.777 0 6.5 0.916 6.5 2.926V39H51.5ZM37.5 3.391C37.5 2.933 38.053 2.704 38.377 3.028L48.472 13.123C48.796 13.447 48.567 14 48.109 14H37.5V3.391ZM34.793 18.707C34.402 18.316 34.402 17.684 34.793 17.293C35.184 16.902 35.816 16.902 36.207 17.293L42.207 23.293C42.598 23.684 42.598 24.316 42.207 24.707L36.207 30.707C36.012 30.902 35.756 31 35.5 31C35.244 31 34.988 30.902 34.793 30.707C34.402 30.316 34.402 29.684 34.793 29.293L40.086 24L34.793 18.707ZM16.793 23.293L22.793 17.293C23.184 16.902 23.816 16.902 24.207 17.293C24.598 17.684 24.598 18.316 24.207 18.707L18.914 24L24.207 29.293C24.598 29.684 24.598 30.316 24.207 30.707C24.012 30.902 23.756 31 23.5 31C23.244 31 22.988 30.902 22.793 30.707L16.793 24.707C16.402 24.316 16.402 23.684 16.793 23.293Z" fill="#E6E6E6"/>
<path d="M6.5 41V56C6.5 57.009 7.72 58 8.963 58H49.037C50.28 58 51.5 57.009 51.5 56V41H6.5ZM18.455 54H16.814V49.461H12.453V54H10.785V43.924H12.453V48.34H16.814V43.924H18.455V54ZM28.107 45.045H25.1V54H23.446V45.045H20.438V43.924H28.108V45.045H28.107ZM39.373 54H37.705V47.068L35.449 52.673H34L31.73 47.068V54H30.062V43.924H31.73L34.724 50.815L37.704 43.924H39.372V54H39.373ZM48.205 54H41.902V43.924H43.57V52.756H48.205V54Z" fill="#E6E6E6"/>
</svg>
